packages/ui-icons/svg/Solid/announcement.svg

<svg viewBox="0 0 1920 1920" version="1.1" xmlns="http://www.w3.org/2000/svg">
    <path d="M959.341941,1355.2828 C963.628574,1355.28974 980.239059,1355.46322 1005.17647,1359.80016 L1005.17647,1359.80016 L1001.78824,1415.14134 C1000.65882,1444.50604 975.811765,1468.22369 946.447059,1468.22369 C880.941176,1468.22369 835.764706,1487.42369 805.270588,1525.82369 C736.376471,1613.91781 760.094118,1788.97663 774.776471,1849.96487 C779.294118,1866.90604 774.776471,1884.97663 764.611765,1898.52957 C753.317647,1912.08251 737.505882,1919.9884 720.564706,1919.9884 L720.564706,1919.9884 L508.235294,1919.9884 C476.611765,1919.9884 451.764706,1895.14134 451.764706,1863.51781 L451.764706,1863.51781 L451.764706,1355.28251 Z M1587.16235,31.2392196 C1598.79529,7.74745494 1624.77176,-4.33725094 1650.63529,1.42274906 C1676.16,7.52157259 1694.11765,30.2227491 1694.11765,56.425102 L1694.11765,56.425102 L1694.11765,570.420396 C1822.87059,596.622749 1920,710.693337 1920,847.013337 C1920,983.333337 1822.87059,1097.51687 1694.11765,1123.71922 L1694.11765,1123.71922 L1694.11765,1637.60157 C1694.11765,1663.80393 1676.16,1686.61804 1650.63529,1692.60393 C1646.23059,1693.6204 1641.93882,1694.07216 1637.64706,1694.07216 C1616.52706,1694.07216 1596.87529,1682.32628 1587.16235,1662.9004 C1379.23765,1247.16393 964.178824,1242.30745 960,1242.30745 L960,1242.30745 L395.294118,1242.30745 C239.548235,1242.30745 112.941176,1115.7004 112.941176,959.954514 L112.941176,959.954514 L112.941176,903.483926 L56.4705882,903.483926 C25.2988235,903.483926 0,878.298043 0,847.013337 C0,815.841573 25.2988235,790.542749 56.4705882,790.542749 L56.4705882,790.542749 L112.941176,790.542749 L112.941176,734.072161 C112.941176,578.43922 239.548235,451.71922 395.294118,451.71922 L395.294118,451.71922 L959.887059,451.71922 C976.828235,451.606278 1380.36706,444.716867 1587.16235,31.2392196 Z" stroke="none" stroke-width="1" fill-rule="evenodd"/>
</svg>

<svg viewBox="0 0 1920 1920" xmlns="http://www.w3.org/2000/svg">
    <path d="M959.342 1355.283c4.287.007 20.897.18 45.834 4.517l-3.388 55.341c-1.13 29.365-25.976 53.083-55.34 53.083-65.507 0-110.683 19.2-141.177 57.6-68.895 88.094-45.177 263.153-30.495 324.14 4.518 16.942 0 35.013-10.164 48.566-11.294 13.553-27.106 21.458-44.047 21.458h-212.33c-31.623 0-56.47-24.847-56.47-56.47v-508.235Zm627.82-1324.044c11.633-23.492 37.61-35.576 63.473-29.816 25.525 6.099 43.483 28.8 43.483 55.002V570.42C1822.87 596.623 1920 710.693 1920 847.013c0 136.32-97.13 250.504-225.882 276.706v513.883c0 26.202-17.958 49.016-43.483 55.002a57.279 57.279 0 0 1-12.988 1.468c-21.12 0-40.772-11.746-50.485-31.172C1379.238 1247.164 964.18 1242.307 960 1242.307H395.294c-155.746 0-282.353-126.607-282.353-282.352v-56.471h-56.47C25.299 903.484 0 878.298 0 847.014c0-31.172 25.299-56.471 56.47-56.471h56.471v-56.47c0-155.634 126.607-282.354 282.353-282.354h564.593c16.941-.113 420.48-7.002 627.275-420.48Z" fill-rule="evenodd"/>
</svg>
